X: 122
T: The Miller's Rant
C:J Scott Skinner
Z:Nigel Gatherer
S:Nigel Gatherer <gatherer@argonet.co.UK>
M:4/4
L:1/8
R:Strathspey
K:D
| A,<D F>D A>D F>D | B,<E G>E B>E G>E | A,<D F>D A>D F>D | G<B C<A D2 D :|
A \
| A<d f>d a>d f>d | B>^d e>f g>e c>B | A<d f>d a>d f>d | B<d c<a d2 d>A |
| A<d f>d a>d f>d | B>^d e>f g>e c>B | (3agf (3edc (3BAG (3FED | (3CDE (3A,B,C D2 D |]

%%sep 1 1 500

